X:1
T: The Laird o' MacIntosh
C:
R:Strathspey
Q: 128
K:G
M:4/4
L:1/16
|:Bc|d4 B3c d3c BG3|E4 c3A G3F ED3|d3c Bg3 BG3 GB3|Ec3 AF3 G6 Bc|
d4 B3c d3c BG3|E4 c3A G3F ED3|d3c Bg3 BG3 GB3|Ec3 AF3 G6:|
|:d2|g4 g3f ea3 a3g|f3d ef3 g3d BG3|g4 g3f ea3 a3g|f3d ef3 g4 g3a|
b3g a3f g3e fd3|ed3 d3B A3B ce3|d3c Bg3 BG3 GB3|Ec3 A3F G6:|
